X:1
T:[ID 2-55a]
T:[ID 2-55a]
T:Bezeichnung standardisiert: Tantz Tantz
T:Urheber unbekannt Erstbeleg: 1775 (Datum in der schriftlichen Quelle) Datum in der hier transkribierten schriftlichen Quelle: 1792
C:Urheber unbekannt
C:Erstbeleg: 1775 (Datum in der schriftlichen Quelle)
C:Datum in der hier transkribierten schriftlichen Quelle: 1792
L:1/8
M:2/4
K:D
V:1 treble 
V:1
 Ad d2 | Ae e2 | Ad c/d/e/c/ | dA FD | Ad d2 | Ae e2 | Ad c/d/e/c/ | d2 D2 :: fa ag/f/ | gb/g/ e2 | %10
 eg gf/e/ | f/g/a/f/ d2 | Ad d2 | Ae e2 | Ad c/d/e/c/ | d2 D2 :| %16

